X: 30193
M: C
L: 1/16
K: F
c2de |\
f8 c6B2 | A3Fc3A F4C3C | F8 ([EG][AF][EG][AF] GAGA) | B2G2F2E2 F4 C3C |\
|: (3(A2=B2c2) |\
c8 (dfef gfef) | c4(cdcB) A4C3C | A4F3A G3FG3A | F4F3F F4 :|


